X: 977
T:Allonby() Lasses
M:2/2
L:1/8
S:Armitt MS
K:G major
c|BGGc BGdG|BGGc Bdge|BGGc BGdG|cAAB cdef:||:gage dBGB|gage dfaf|1gage d
B
GB|cAAB cdef||2gbeg dgBg|cAAB cdef:||
